resources/icons/hicolor/scalable/actions/ymuse-clear-symbolic.svg

<svg xmlns="http://www.w3.org/2000/svg" width="512" height="512"><path d="M 64,464.00001 A 48,47.999984 0 0 0 112,512 h 288 a 48,47.999984 0 0 0 48,-47.99999 V 128.00013 H 64 Z M 336,208.0001 a 16,15.999995 0 0 1 32,0 v 223.99992 a 16,15.999995 0 0 1 -32,0 z m -96,0 a 16,15.999995 0 0 1 32,0 v 223.99992 a 16,15.999995 0 0 1 -32,0 z m -96,0 a 16,15.999995 0 0 1 32,0 v 223.99992 a 16,15.999995 0 0 1 -32,0 z M 464,32.000164 H 344 L 334.6,13.30017 A 24,23.999992 0 0 0 313.1,1.7526444e-4 H 198.8 A 23.72,23.719992 0 0 0 177.4,13.30017 L 168,32.000164 H 48 A 16,15.999995 0 0 0 32,48.000159 V 80.000148 A 16,15.999995 0 0 0 48,96.000142 H 464 A 16,15.999995 0 0 0 480,80.000148 V 48.000159 A 16,15.999995 0 0 0 464,32.000164 Z"/></svg>

<svg xmlns="http://www.w3.org/2000/svg" width="512" height="512"><path d="M64 464a48 48 0 0048 48h288a48 48 0 0048-48V128H64zm272-256a16 16 0 0132 0v224a16 16 0 01-32 0zm-96 0a16 16 0 0132 0v224a16 16 0 01-32 0zm-96 0a16 16 0 0132 0v224a16 16 0 01-32 0zM464 32H344l-9.4-18.7A24 24 0 00313.1 0H198.8a23.72 23.72 0 00-21.4 13.3L168 32H48a16 16 0 00-16 16v32a16 16 0 0016 16h416a16 16 0 0016-16V48a16 16 0 00-16-16z"/></svg>
